X:1
T: Guilderoy's Reel
T: Version 1
R:Reel
Q: 232
K:Am
M:4/4
L:1/8
|:E2|A2 AB cB cd|ef ec d2 cd|ed cB AB cA|B^G E2 E2 EG|
A^G AB cB cd|ef ec d2 cd|ea ^ga ed cB|A4 A2:|
e^f|g3a g^f ef|g^f fe d2 cd|ed cB AB cA|B^G E2 E2 e^f|
g3a g^f ef|g^f fe d2 cd|ed cB BA G^F|E4 E2 e^f|
g3a g^f ef|g^f fe d2 cd|ed cB AB cA|B^G E2 E2 EG|
A^G AB cB cd|ef ec d2 cd|ea ^ga ed cB|A4 A2||
